svgs/resso.svg

<svg xmlns="http://www.w3.org/2000/svg" viewBox="0 0 192 192"><path d="M42.929 173.494c-6.45-3.129-12.512-9.401-15.838-16.389-2.547-5.351-2.72-7.005-2.73-26.065-.011-19.797.073-20.524 3.068-26.642 3.377-6.896 8.107-11.621 15.519-15.502 3.807-1.994 6.749-2.526 13.964-2.526 10.129 0 11.153.394 28.005 10.787 5.335 3.29 11.242 6.866 13.127 7.946 1.885 1.08 5.963 3.578 9.063 5.55l5.635 3.586 3.505-2.127c20.445-12.406 20.072-12.107 20.072-16.097 0-3.576-1.571-5.131-10.283-10.177-3.456-2.002-15.024-9.02-25.707-15.595-33.133-20.394-40.143-24.537-41.517-24.537-.731 0-2.357 1.029-3.614 2.285-1.968 1.969-2.288 3.829-2.31 13.425l-.025 11.14-8.194 2.622c-4.506 1.443-10.666 4.399-13.688 6.57-3.022 2.171-5.75 3.947-6.063 3.947-1.245 0-.528-43.859.79-48.256 1.796-5.996 10.181-15.166 17.047-18.646C47.142 16.57 50.013 16 56.82 16c9.905 0 10.945.392 26.942 10.154 30.085 18.359 52.726 32.197 61.126 37.358 11.603 7.13 15.65 10.775 18.642 16.794 9.121 18.35 3.229 35.327-16.227 46.763-2.899 1.704-5.271 3.513-5.271 4.021s3.614 3.155 8.032 5.881c8.804 5.432 11.391 9.049 11.391 15.924 0 7.258-6.947 13.922-14.511 13.92-1.819 0-7.386-2.521-12.91-5.844l-15.189-9.14c-3.013-1.813-5.889-3.296-6.392-3.296-.504 0-4.209 2.135-8.234 4.744-10.527 6.824-29.46 18.158-34.398 20.593-6.074 2.994-20.353 2.793-26.892-.378Zm29.064-34.344c6.488-3.905 11.633-7.59 11.433-8.188-.625-1.875-21.817-14.338-24.45-14.379-4.415-.069-6.063 4.027-6.063 15.068 0 8.506.347 10.376 2.285 12.314 1.257 1.257 2.896 2.285 3.643 2.285.746 0 6.665-3.195 13.152-7.1Z"/></svg>

<svg
    xmlns="http://www.w3.org/2000/svg"
    viewBox="0 0 192 192"
    id="vector">
    <path
        id="path"
        d="M 42.929 173.494 C 36.479 170.365 30.417 164.093 27.091 157.105 C 24.544 151.754 24.371 150.1 24.361 131.04 C 24.35 111.243 24.434 110.516 27.429 104.398 C 30.806 97.502 35.536 92.777 42.948 88.896 C 46.755 86.902 49.697 86.37 56.912 86.37 C 67.041 86.37 68.065 86.764 84.917 97.157 C 90.252 100.447 96.159 104.023 98.044 105.103 C 99.929 106.183 104.007 108.681 107.107 110.653 L 112.742 114.239 L 116.247 112.112 C 136.692 99.706 136.319 100.005 136.319 96.015 C 136.319 92.439 134.748 90.884 126.036 85.838 C 122.58 83.836 111.012 76.818 100.329 70.243 C 67.196 49.849 60.186 45.706 58.812 45.706 C 58.081 45.706 56.455 46.735 55.198 47.991 C 53.23 49.96 52.91 51.82 52.888 61.416 L 52.863 72.556 L 44.669 75.178 C 40.163 76.621 34.003 79.577 30.981 81.748 C 27.959 83.919 25.231 85.695 24.918 85.695 C 23.673 85.695 24.39 41.836 25.708 37.439 C 27.504 31.443 35.889 22.273 42.755 18.793 C 47.142 16.57 50.013 16 56.82 16 C 66.725 16 67.765 16.392 83.762 26.154 C 113.847 44.513 136.488 58.351 144.888 63.512 C 156.491 70.642 160.538 74.287 163.53 80.306 C 172.651 98.656 166.759 115.633 147.303 127.069 C 144.404 128.773 142.032 130.582 142.032 131.09 C 142.032 131.598 145.646 134.245 150.064 136.971 C 158.868 142.403 161.455 146.02 161.455 152.895 C 161.455 160.153 154.508 166.817 146.944 166.815 C 145.125 166.815 139.558 164.294 134.034 160.971 C 128.693 157.757 121.858 153.644 118.845 151.831 C 115.832 150.018 112.956 148.535 112.453 148.535 C 111.949 148.535 108.244 150.67 104.219 153.279 C 93.692 160.103 74.759 171.437 69.821 173.872 C 63.747 176.866 49.468 176.665 42.929 173.494 Z M 71.993 139.15 C 78.481 135.245 83.626 131.56 83.426 130.962 C 82.801 129.087 61.609 116.624 58.976 116.583 C 54.561 116.514 52.913 120.61 52.913 131.651 C 52.913 140.157 53.26 142.027 55.198 143.965 C 56.455 145.222 58.094 146.25 58.841 146.25 C 59.587 146.25 65.506 143.055 71.993 139.15 Z"
        fill="#000000"
        stroke-width="12"/>
</svg>
